src/assets/images/petition-graphic.svg

<svg xmlns="http://www.w3.org/2000/svg" width="100" height="100" viewBox="0 0 100 100" xmlns:xlink="http://www.w3.org/1999/xlink">
  <defs>
    <path id="a" d="M6,55 L64,55 L64,57 L6,57 L6,55 Z M6,73 L64,73 L64,75 L6,75 L6,73 Z M6,61 L64,61 L64,63 L6,63 L6,61 Z M6,79 L64,79 L64,81 L6,81 L6,79 Z M6,67 L46,67 L46,69 L6,69 L6,67 Z M6,85 L46,85 L46,87 L6,87 L6,85 Z"/>
    <mask id="b" width="58" height="32" x="0" y="0" fill="white">
      <use xlink:href="#a"/>
    </mask>
  </defs>
  <g fill="none" fill-rule="evenodd">
    <rect width="100" height="100"/>
    <path fill="#1000C5" d="M98.0024621,93 C97.9988522,93 98,7.00596461 98,7.00596461 C98,7.00235415 1.99753791,7 1.99753791,7 C2.00114781,7 2,92.9940354 2,92.9940354 C2,92.9976458 98.0024621,93 98.0024621,93 Z M0,7.00596461 C0,5.89810095 0.895051472,5 1.99753791,5 L98.0024621,5 C99.1056718,5 100,5.89076161 100,7.00596461 L100,92.9940354 C100,94.1018991 99.1049485,95 98.0024621,95 L1.99753791,95 C0.894328186,95 0,94.1092384 0,92.9940354 L0,7.00596461 Z"/>
    <use stroke="#1000C5" stroke-width="2" mask="url(#b)" xlink:href="#a"/>
    <rect width="58" height="30" x="6" y="20" fill="#1000C5"/>
    <path fill="#1000C5" d="M81.5,42 C86.7467051,42 91,37.7467051 91,32.5 C91,27.2532949 86.7467051,23 81.5,23 C76.2532949,23 72,27.2532949 72,32.5 C72,37.7467051 76.2532949,42 81.5,42 Z M81.5,45 C74.5964406,45 69,39.4035594 69,32.5 C69,25.5964406 74.5964406,20 81.5,20 C88.4035594,20 94,25.5964406 94,32.5 C94,39.4035594 88.4035594,45 81.5,45 Z"/>
    <rect width="100" height="8" y="5" fill="#1000C5" rx="2"/>
  </g>
</svg>

<svg xmlns="http://www.w3.org/2000/svg" width="100" height="100" viewBox="0 0 100 100" xmlns:xlink="http://www.w3.org/1999/xlink"><defs><path id="a" d="M6 55h58v2H6v-2zm0 18h58v2H6v-2zm0-12h58v2H6v-2zm0 18h58v2H6v-2zm0-12h40v2H6v-2zm0 18h40v2H6v-2z"/><mask id="b" width="58" height="32" x="0" y="0" fill="#fff"><use xlink:href="#a"/></mask></defs><g fill="none" fill-rule="evenodd"><path d="M0 0h100v100H0z"/><path fill="#1000C5" d="M98.002 93C98 93 98 7.006 98 7.006 98 7.002 1.998 7 1.998 7 2 7 2 92.994 2 92.994c0 .004 96.002.006 96.002.006zM0 7.006C0 5.898.895 5 1.998 5h96.004C99.106 5 100 5.89 100 7.006v85.988A2.002 2.002 0 0 1 98.002 95H1.998A1.997 1.997 0 0 1 0 92.994V7.006z"/><use stroke="#1000C5" stroke-width="2" mask="url(#b)" xlink:href="#a"/><path fill="#1000C5" d="M6 20h58v30H6zM81.5 42a9.5 9.5 0 1 0 0-19 9.5 9.5 0 0 0 0 19zm0 3C74.596 45 69 39.404 69 32.5S74.596 20 81.5 20 94 25.596 94 32.5 88.404 45 81.5 45z"/><rect width="100" height="8" y="5" fill="#1000C5" rx="2"/></g></svg>
